src/lib/packages/icons/src/assets/filled/forward.svg

<svg width="24" height="24" viewBox="0 0 24 24" fill="none" xmlns="http://www.w3.org/2000/svg">
<path d="M20.255 13.5421L15.144 17.5792C13.868 18.5872 12 17.6712 12 16.0372V12.0001C12 12.5751 11.752 13.1501 11.255 13.5421L6.14404 17.5792C4.86804 18.5872 3 17.6712 3 16.0372V7.96296C3 6.32896 4.86704 5.41297 6.14404 6.42097L11.255 10.4571C11.752 10.8491 12 11.4241 12 11.9991V7.96296C12 6.32896 13.867 5.41297 15.144 6.42097L20.255 10.4571C21.248 11.2421 21.248 12.7571 20.255 13.5421Z" fill="currentColor"/>
</svg>

<svg xmlns="http://www.w3.org/2000/svg" width="24" height="24" fill="none"><path fill="currentColor" d="m20.255 13.542-5.111 4.037C13.868 18.587 12 17.671 12 16.037V12c0 .575-.248 1.15-.745 1.542L6.144 17.58C4.868 18.587 3 17.671 3 16.037V7.963c0-1.634 1.867-2.55 3.144-1.542l5.111 4.036c.497.392.745.967.745 1.542V7.963c0-1.634 1.867-2.55 3.144-1.542l5.111 4.036a1.97 1.97 0 0 1 0 3.085Z"/></svg>
